src/catppuccin-latte-rosewater-cursors/context-menu_24.svg

<?xml version="1.0" encoding="UTF-8" standalone="no"?>
<svg
   id="svg5327"
   width="24"
   height="24"
   version="1.1"
   sodipodi:docname="context-menu_24.svg"
   inkscape:version="1.1.2 (0a00cf5339, 2022-02-04)"
   xmlns:inkscape="http://www.inkscape.org/namespaces/inkscape"
   xmlns:sodipodi="http://sodipodi.sourceforge.net/DTD/sodipodi-0.dtd"
   xmlns:xlink="http://www.w3.org/1999/xlink"
   xmlns="http://www.w3.org/2000/svg"
   xmlns:svg="http://www.w3.org/2000/svg">
  <sodipodi:namedview
     id="namedview23"
     pagecolor="#ffffff"
     bordercolor="#666666"
     borderopacity="1.0"
     inkscape:pageshadow="2"
     inkscape:pageopacity="0.0"
     inkscape:pagecheckerboard="0"
     showgrid="false"
     inkscape:snap-global="true"
     inkscape:zoom="24.480037"
     inkscape:cx="15.400304"
     inkscape:cy="11.356192"
     inkscape:window-width="1896"
     inkscape:window-height="1020"
     inkscape:window-x="9"
     inkscape:window-y="45"
     inkscape:window-maximized="1"
     inkscape:current-layer="svg5327"
     inkscape:snap-bbox="true"
     inkscape:snap-bbox-midpoints="true">
    <inkscape:grid
       type="xygrid"
       id="grid1390" />
  </sodipodi:namedview>
  <defs
     id="defs5329">
    <linearGradient
       id="linearGradient830">
      <stop
         id="stop826"
         style="stop-color:#ffffff;stop-opacity:1"
         offset="0" />
      <stop
         id="stop828"
         style="stop-color:#ffffff;stop-opacity:0"
         offset="1" />
    </linearGradient>
    <linearGradient
       id="linearGradient832"
       x1="21"
       x2="25"
       y1="16"
       y2="28"
       gradientUnits="userSpaceOnUse"
       xlink:href="#linearGradient830"
       gradientTransform="matrix(0.69230767,0,0,0.69230767,1.9230779,0.9230769)" />
    <filter
       id="filter836"
       style="color-interpolation-filters:sRGB"
       width="1.144"
       height="1.144"
       x="-0.071999998"
       y="-0.071999998">
      <feGaussianBlur
         id="feGaussianBlur838"
         stdDeviation=".45" />
    </filter>
    <filter
       id="filter839"
       style="color-interpolation-filters:sRGB"
       width="1.136"
       height="1.153"
       x="-0.067999999"
       y="-0.076499999">
      <feGaussianBlur
         id="feGaussianBlur841"
         stdDeviation=".255" />
    </filter>
    <filter
       id="filter914"
       style="color-interpolation-filters:sRGB"
       width="1.171"
       height="1.1243636"
       x="-0.085499998"
       y="-0.062181813">
      <feGaussianBlur
         id="feGaussianBlur916"
         stdDeviation=".57" />
    </filter>
    <filter
       inkscape:collect="always"
       style="color-interpolation-filters:sRGB"
       id="filter1480"
       x="-0.023520193"
       y="-0.023519893"
       width="1.0470404"
       height="1.0470398">
      <feGaussianBlur
         inkscape:collect="always"
         stdDeviation="0.21560181"
         id="feGaussianBlur1482" />
    </filter>
    <linearGradient
       id="linearGradient832-3"
       x1="21"
       x2="25"
       y1="16"
       y2="28"
       gradientUnits="userSpaceOnUse"
       xlink:href="#linearGradient830"
       gradientTransform="matrix(0.69230769,0,0,0.69230769,1.9230769,0.9230769)" />
    <filter
       inkscape:collect="always"
       style="color-interpolation-filters:sRGB"
       id="filter1789"
       x="-0.069119997"
       y="-0.069119997"
       width="1.13824"
       height="1.13824">
      <feGaussianBlur
         inkscape:collect="always"
         stdDeviation="0.144"
         id="feGaussianBlur1791" />
    </filter>
  </defs>
  <path
     id="path1439"
     style="color:#000000;fill:#000000;fill-opacity:1;stroke-linecap:round;stroke-linejoin:round;-inkscape-stroke:none;opacity:0.1;filter:url(#filter1480)"
     d="m 2.4863332,0.5 a 1.0001,1.0001 0 0 0 -0.375,0.0839844 A 1.0001,1.0001 0 0 0 1.5097707,1.5 l -0.00977,15 a 1.0001,1.0001 0 0 0 1.9492188,0.316406 C 4.1110667,14.830878 5.6751555,13.041873 7.1660207,12.246094 8.1069794,11.767936 9.0955806,11.506175 10.005864,11.5 c 0.897165,-0.0061 1.775602,0.233292 2.523438,0.632812 a 1.0001,1.0001 0 0 0 1.152344,-1.615234 L 3.1914113,0.76757812 A 1.0001,1.0001 0 0 0 2.4863332,0.5 Z m 15.5136718,11 a 5.5,5.5 0 0 0 -5.5,5.5 5.5,5.5 0 0 0 5.5,5.5 5.5,5.5 0 0 0 5.5,-5.5 5.5,5.5 0 0 0 -5.5,-5.5 z" />
  <path
     id="path1725"
     style="color:#000000;fill:#EFF1F5;stroke-linecap:round;stroke-linejoin:round;-inkscape-stroke:none;fill-opacity:1"
     d="M 1.9863281 0 A 1.0001 1.0001 0 0 0 1.6113281 0.083984375 A 1.0001 1.0001 0 0 0 1.0097656 1 L 1 16 A 1.0001 1.0001 0 0 0 2.9492188 16.316406 C 3.6110617 14.330878 5.1751504 12.541873 6.6660156 11.746094 C 7.6069743 11.267936 8.5955755 11.006175 9.5058594 11 C 10.403024 10.9939 11.281461 11.233291 12.029297 11.632812 A 1.0001 1.0001 0 0 0 13.181641 10.017578 L 2.6914062 0.26757812 A 1.0001 1.0001 0 0 0 1.9863281 0 z " />
  <path
     id="path840"
     style="fill:#EFF1F5;fill-opacity:1;stroke:none;stroke-width:1.99999;stroke-linecap:round;stroke-linejoin:round;stroke-miterlimit:4;stroke-dasharray:none;stroke-opacity:1"
     d="M 23,16.5 A 5.5,5.5 0 0 1 17.5,22 5.5,5.5 0 0 1 12,16.5 5.5,5.5 0 0 1 17.5,11 5.5,5.5 0 0 1 23,16.5 Z" />
  <path
     id="path823"
     style="fill:#DC8A78;fill-opacity:1;stroke:none;stroke-width:1.25944;stroke-linecap:round;stroke-linejoin:round;stroke-miterlimit:4;stroke-dasharray:none;stroke-opacity:1"
     d="M 2.0105448,1.0005164 1.9999998,16.000516 c 0.75,-2.25 2.4349812,-4.20291 4.202126,-5.142865 1.064836,-0.542978 2.2025312,-0.849705 3.297874,-0.857135 1.0769232,-0.0073 2.1128932,0.276075 3.0000002,0.75 z" />
  <path
     id="path836"
     style="fill:#DC8A78;fill-opacity:1;stroke:none;stroke-width:1.63636;stroke-linecap:round;stroke-linejoin:round;stroke-miterlimit:4;stroke-dasharray:none;stroke-opacity:1"
     d="M 22,16.5 A 4.5,4.5 0 0 1 17.5,21 4.5,4.5 0 0 1 13,16.5 4.5,4.5 0 0 1 17.5,12 4.5,4.5 0 0 1 22,16.5 Z" />
  <path
     id="path824-7"
     style="opacity:0.2;fill:#DC8A78;fill-opacity:1;stroke:none;stroke-width:1.63636;stroke-linecap:round;stroke-linejoin:round;stroke-miterlimit:4;stroke-dasharray:none;stroke-opacity:1"
     d="M 22,16.5 A 4.5,4.5 0 0 1 17.5,21 4.5,4.5 0 0 1 13,16.5 4.5,4.5 0 0 1 17.5,12 4.5,4.5 0 0 1 22,16.5 Z" />
  <path
     id="path1751"
     style="opacity:0.2;fill:#000000;fill-opacity:1;stroke-width:0.263524;filter:url(#filter1789)"
     d="m 15.3,14.3 v 1 h 5 v -1 z m 0,2 v 1 h 5 v -1 z m 0,2 v 1 h 5 v -1 z" />
  <path
     id="rect827"
     style="fill:#EFF1F5;fill-opacity:1;stroke-width:0.263524"
     d="m 15,14 v 1 h 5 v -1 z m 0,2 v 1 h 5 v -1 z m 0,2 v 1 h 5 v -1 z" />
</svg>

<svg xmlns="http://www.w3.org/2000/svg" width="24" height="24">
    <defs>
        <filter id="a" width="1.047" height="1.047" x="-.024" y="-.024" style="color-interpolation-filters:sRGB">
            <feGaussianBlur stdDeviation=".216"/>
        </filter>
        <filter id="c" width="1.138" height="1.138" x="-.069" y="-.069" style="color-interpolation-filters:sRGB">
            <feGaussianBlur stdDeviation=".144"/>
        </filter>
    </defs>
    <path d="M2.486.5a1 1 0 0 0-.375.084 1 1 0 0 0-.601.916l-.01 15a1 1 0 0 0 1.95.316c.661-1.985 2.225-3.774 3.716-4.57.941-.478 1.93-.74 2.84-.746a5.3 5.3 0 0 1 2.523.633 1 1 0 0 0 1.153-1.615L3.192.768A1 1 0 0 0 2.485.5M18 11.5a5.5 5.5 0 0 0-5.5 5.5 5.5 5.5 0 0 0 5.5 5.5 5.5 5.5 0 0 0 5.5-5.5 5.5 5.5 0 0 0-5.5-5.5" style="color:#000;fill:#000;fill-opacity:1;stroke-linecap:round;stroke-linejoin:round;-inkscape-stroke:none;opacity:.1;filter:url(#a)"/>
    <path d="M1.986 0a1 1 0 0 0-.375.084A1 1 0 0 0 1.01 1L1 16a1 1 0 0 0 1.95.316c.661-1.985 2.225-3.774 3.716-4.57.941-.478 1.93-.74 2.84-.746a5.3 5.3 0 0 1 2.523.633 1 1 0 0 0 1.153-1.615L2.692.268A1 1 0 0 0 1.985 0" style="color:#000;fill:#eff1f5;stroke-linecap:round;stroke-linejoin:round;-inkscape-stroke:none;fill-opacity:1"/>
    <path d="M23 16.5a5.5 5.5 0 0 1-5.5 5.5 5.5 5.5 0 0 1-5.5-5.5 5.5 5.5 0 0 1 5.5-5.5 5.5 5.5 0 0 1 5.5 5.5" style="fill:#eff1f5;fill-opacity:1;stroke:none;stroke-width:1.99999;stroke-linecap:round;stroke-linejoin:round;stroke-miterlimit:4;stroke-dasharray:none;stroke-opacity:1"/>
    <path d="M2.01 1 2 16c.75-2.25 2.435-4.202 4.202-5.142 1.065-.543 2.203-.85 3.298-.857a6.3 6.3 0 0 1 3 .75z" style="fill:#dc8a78;fill-opacity:1;stroke:none;stroke-width:1.25944;stroke-linecap:round;stroke-linejoin:round;stroke-miterlimit:4;stroke-dasharray:none;stroke-opacity:1"/>
    <path d="M22 16.5a4.5 4.5 0 0 1-4.5 4.5 4.5 4.5 0 0 1-4.5-4.5 4.5 4.5 0 0 1 4.5-4.5 4.5 4.5 0 0 1 4.5 4.5" style="fill:#dc8a78;fill-opacity:1;stroke:none;stroke-width:1.63636;stroke-linecap:round;stroke-linejoin:round;stroke-miterlimit:4;stroke-dasharray:none;stroke-opacity:1"/>
    <path d="M22 16.5a4.5 4.5 0 0 1-4.5 4.5 4.5 4.5 0 0 1-4.5-4.5 4.5 4.5 0 0 1 4.5-4.5 4.5 4.5 0 0 1 4.5 4.5" style="opacity:.2;fill:#dc8a78;fill-opacity:1;stroke:none;stroke-width:1.63636;stroke-linecap:round;stroke-linejoin:round;stroke-miterlimit:4;stroke-dasharray:none;stroke-opacity:1"/>
    <path d="M15.3 14.3v1h5v-1zm0 2v1h5v-1zm0 2v1h5v-1z" style="opacity:.2;fill:#000;fill-opacity:1;stroke-width:.263524;filter:url(#c)"/>
    <path d="M15 14v1h5v-1zm0 2v1h5v-1zm0 2v1h5v-1z" style="fill:#eff1f5;fill-opacity:1;stroke-width:.263524"/>
</svg>
